**kern	**kern
*part1	*part1
*staff2	*staff1
*I"Piano	*
*clefF4	*clefG2
*k[f#c#g#d#]	*k[f#c#g#d#]
=1	=1
*	*^
4AAA	4.A 4.c# 4.a	4.ryy
8AA	.	.
4BBB	4g#	4.A 4.B 4.d#
8BB	8f#)	.
*	*v	*v
=	=
*^	*
4EE	2.EE	2.G# 2.B 2.e 2.g#
8BB	.	.
4BB	.	.
8BB	.	.
=	=	=
4FF#	2.FF#	2.A 2.B 2.d# 2.a
8BB	.	.
4BB	.	.
8BB	.	.
=	=	=
*	*	*^
4GG#	2.GGG#	4.B 4.dn 4.e 4.b	4.ryy
8EE	.	.	.
4EE	.	4.B 4.d 4.e	4.E<
8EE	.	.	.
=	=	=	=
4AA	2.AAA 2.AA	2.A 2.c# 2.e	2.E<
8EE	.	.	.
4EE	.	.	.
8EE	.	.	.
*v	*v	*	*
=	=	=
2.AAA 2.AA	4r	4ryy
.	8B 8d#	8F#<
.	4B 4d# 4f#	4ryy
.	8B 8d#	8F#<
*	*v	*v
=	=
2.GGG# 2.GG#	4r
.	8E< 8B<
.	4B 4e
.	8E< 8B<
=	=
*	*^
2.AAA#X 2.AA#X	4r	4ryy
.	8c# 8e	8F#<
.	4c# 4e 4f#	4ryy
.	8c# 8e	8F#<
*	*v	*v
=	=
*-	*-
!!!system-decoration: {(s1,s2)}
!!!RDF**kern: < = below
